usr/share/icons/biglinux-icons-material-dark/22/actions/unmarkasblank.svg

<svg xmlns="http://www.w3.org/2000/svg" viewBox="0 0 22 22">
  <defs id="defs3051">
    <style type="text/css" id="current-color-scheme">
      .ColorScheme-Text {
        color:#dedede;
      }
      .ColorScheme-Highlight {
        color:#3daee9;
      }
      </style>
  </defs>
 <path 
     style="fill:currentColor;fill-opacity:1;stroke:none" 
     d="M 2 3 L 2 19 L 3 19 L 5 19 L 5 18 L 3 18 L 3 4 L 5 4 L 5 3 L 3 3 L 2 3 z M 16 3 L 16 4 L 18 4 L 18 13 L 19 13 L 19 3 L 18 3 L 16 3 z M 5 14 L 5 15 L 5 16 L 13 16 L 13 15 L 6 15 L 6 14 L 5 14 z "
     class="ColorScheme-Text"
     />
 <path 
     style="fill:#da4453;fill-opacity:1;stroke:none" 
     d="M 14.833984 14 L 14 14.833984 L 15.666016 16.5 L 14 18.166016 L 14.833984 19 L 16.5 17.333984 L 18.166016 19 L 19 18.166016 L 17.333984 16.5 L 19 14.833984 L 18.166016 14 L 16.5 15.666016 L 14.833984 14 z "
     />
</svg>

<svg xmlns="http://www.w3.org/2000/svg" viewBox="0 0 22 22">
<defs id="defs3051">
<style id="current-color-scheme" type="text/css">
.ColorScheme-Text{color:#dedede}
</style>
</defs>
<path d="M2 3v16h3v-1H3V4h2V3zm14 0v1h2v9h1V3zM5 14v2h8v-1H6v-1z" class="ColorScheme-Text" style="fill:currentColor;fill-opacity:1;stroke:none"/>
<path d="m14.834 14-.834.834 1.666 1.666L14 18.166l.834.834 1.666-1.666L18.166 19l.834-.834-1.666-1.666L19 14.834 18.166 14 16.5 15.666z" style="fill:#da4453;fill-opacity:1;stroke:none"/>
</svg>
